X:1
T:My heart and flesh cry out for thee
T:My heart and flesh cry out for thee - Henley (Thomas Clark)
C:Thomas Clark
Z:p3, A Second Set of Psalm
Z:and Hymn Tunes,
Z:London: (1806)
%%score [ 1 2 3 4 ]
L:1/8
M:2/2
K:C
V:1 treble nm="SOPRANO" snm="S."
V:2 treble nm="ALTO" snm="A."
V:3 treble-8 transpose=-12 nm="TENOR" snm="T."
V:4 bass nm="BASS" snm="B."
V:1
 z4 c4 | G6 F2 | E4 G4 | (c2 e2) (d2 B2) | c6 e2 | (A2 c2) (B2 A2) | (A2 G2) (F2 E2) | %7
w: To|sit one|day be-|neath _ thine _|eye, And|hear _ thy _|gra- * cious _|
w: My|heart and|flesh cry|out _ for _|thee, While|far _ from _|thine _ a- *|
w: The|spar- row|builds her-|self _ a _|nest, And|suf- * fers _|no _ re- *|
 (E2 D2) z2 G2 | (c2 e2) (d2 c2) | B4 A4 | G8 |: z8 | z8 | z8 | d4 d2 d2 | (efed c2) B2 | A4 d4 | %17
w: voice, _ and|hear _ thy _|gra- cious|voice,||||Ex- ceeds a|whole _ _ _ _ e-|ter- ni-|
w: bode, _ while|far _ from _|thine a-|bode:||||When shall I|tread _ _ _ _ thy|courts and|
w: move, _ and|suf- * fers _|no re-|move:||||O make me,|like _ _ _ _ the|spar- rows,|
 B6 G2 | (c2 e2) (g2 f2) | e4 d4 | c8 :| %21
w: ty Em-|ploy’d _ in _|car- nal|joys.|
w: see My|Sa- * viour _|and my|God?|
w: blest To|dwell _ but _|where I|love.|
V:2
 z4 E4 | E6 D2 | E4 C4 | G4 F4 | E6 G2 | C4 (DE F2) | (F2 E2) (D2 C2) | (C2 B,2) z2 D2 | %8
w: To|sit one|day be-|neath thine|eye, And|hear thy _ _|gra- * cious _|voice, _ and|
w: My|heart and|flesh cry|out for|thee, While|far from _ _|thine _ a- *|bode, _ while|
w: The|spar- row|builds her-|self a|nest, And|suf- fers _ _|no _ re- *|move, _ and|
 (E2 G2) (G2 E2) | D4 D4 | D8 |: z8 | z8 | z8 | z4 z2 G2 | G2 G2 G2 G2 | G4 ^F4 | G6 G2 | %18
w: hear _ thy _|gra- cious|voice,||||Ex-|ceeds a whole e-|ter- ni-|ty Em-|
w: far _ from _|thine a-|bode:||||When|shall I tread thy|courts and|see My|
w: suf- * fers _|no re-|move:||||O|make me, like the|spar- rows,|blest To|
 G4 (E2 A2) | G4 (G2 F2) | E8 :| %21
w: ploy’d in _|car- nal _|joys.|
w: Sa- viour _|and my _|God?|
w: dwell but _|where I _|love.|
V:3
 z4 G4 | c6 B2 | c4 c4 | (e2 c2) (B2 d2) | c6 z2 | z8 | z8 | z4 z2 B2 | c4 G4 | G4 ^F4 | G8 |: z8 | %12
w: To|sit one|day be-|neath _ thine _|eye,|||And|hear thy|gra- cious|voice,||
w: My|heart and|flesh cry|out _ for _|thee,|||While|far from|thine a-|bode:||
w: The|spar- row|builds her-|self _ a _|nest,|||And|suf- fers|no re-|move:||
 z8 | z8 | B4 B2 B2 | (cdcd e2) d2 | d4 d4 | d6 B2 | c4 c4 | c4 B4 | c8 :| %21
w: ||Ex- ceeds a|whole _ _ _ _ e-|ter- ni-|ty Em-|ploy’d in|car- nal|joys.|
w: ||When shall I|tread _ _ _ _ thy|courts and|see My|Sa- viour|and my|God?|
w: ||O make me,|like _ _ _ _ the|spar- rows,|blest To|dwell but|where I|love.|
V:4
 z4 C,4 | C,4"^64""^53" G,,4 | C,4"^6" E,4 |"^64" G,4"^7" G,,4 | C,6 z2 | z8 | z8 | z4 z2 G,2 | %8
w: To|sit one|day be-|neath thine|eye,|||And|
w: My|heart and|flesh cry|out for|thee,|||While|
w: The|spar- row|builds her-|self a|nest,|||And|
 C,4"^6" (B,,2 C,2) |"^64" D,4"^5#" D,4 | G,,8 |: C4 B,2 A,2 | (G,A,G,F, E,2) D,2 | %13
w: hear thy _|gra- cious|voice,|Ex- ceeds a|whole _ _ _ _ e-|
w: far from _|thine a-|bode:|When shall I|tread _ _ _ _ thy|
w: suf- fers _|no re-|move:|O make me,|like _ _ _ _ the|
 (C,2 D,2) (E,2 ^F,2) | %14
w: ter- * ni- *|
w: courts _ and _|
w: spar- * rows, _|
"^Notes: The order of parts in the source is Tenor - [Alto] - Air - [Bass], with both the Tenor and Alto parts printed inthe treble clef an octave above sounding pitch. Only the first verse of the text is underlaid in the source: foursubsequent verses have been added editorially." G,6 G,2 | %15
w: ty, ex-|
w: see, when|
w: blest, O|
 C2 G,2"^6" E,2 G,2 |"^64" D,4"^#" D,4 | G,6"^42" F,2 |"^6" (E,2 C,2) (C2 F,2) | %19
w: ceeds a whole e-|ter- ni-|ty Em-|ploy’d _ in _|
w: shall I tread thy|courts and|see My|Sa- * viour _|
w: make me, like the|spar- rows,|blest To|dwell _ but _|
"^64" G,4"^53""^7" G,,4 | C,8 :| %21
w: car- nal|joys.|
w: and my|God?|
w: where I|love.|

